X: 1699
T: Antigonish Polka, The
R: barndance
M: 4/4
K: Dmajor
|:(3EFG|A2 f2 f>ed>B|A2 A>B A>GF>A|(3ded c>d b2 a2|g2- g>a g2 (3fed|
c2 c>d c>B A2|d2 d>c d2 (3efg|(3aba ^ga b2 c2|d4- d2:|
|:(3dcB|A2 ^G>A B>cd>e|f2- f>g f>e d2|(3ABA ^G>A B>cd>e|f2- f>^e f2 (3agf|
e>ag>f e2 (3dcB|A>ag>f e>dc>B|(3ABA ^G>A B>A (3FGA|d4- d2:|

